X: 1124
T: Hüzzam Sazsemâîsi
C: Gazi Giray Han
O: Turkey
F: http://compmusic.upf.edu/node/140
N: huzzam--sazsemaisi--aksaksemai----gazi_giray_han
N: makam= huzzam
N: form= sazsemaisi
N: usul= aksaksemai = 10/8
M: 10/8
L: 1/16
K: C _1/4B _3/4e ^3/4f 
Q: 1/4=69
%%MIDI tuningsystem comma53
B4_7/8eee2d2d2c2B4c2d4e^fe2d2d2  | \
w:   | 
c2B4cdc4ccc4c2B2d4c2B4  | 
w:   | 
BBB2z2B2A2B4cd  | c4ccc2z2c2B2d4c2B4BBB2z2B2  | 
w:   |   | 
A2B4c2d4_7/8eee2  | d2d2c2B4cdB4  | ^A2G4A4B4d2  | \
w:   |   |   | 
c4B2^A3Bc2d2d2  | 
w:   | 
c2B4z2B4_7/8eee2  | d2d2c2B4c2d4  | _7/8e^fe2d2d2c2B4cd  | 
w:   |   |   | 
c4ccc4c2B2d4c2B4BBB2z2B2  | A2B4cdc4ccc2  | 
w:   |   | 
z2c2B2d4c2B4  | BBB2z2B2A2B4c2  | d4_7/8eee2d2d2c2B4cdB4^A2G4A4B4d2c4B2A3Bc2d2d2c2B4z2  | 
w:   |   |   | 
B4d2_7/8e2z2e2d2e4d2e4d2e2d2e2  | \
w:   | 
^f2g2f2_7/8e2d4c2d2  | z2d2c2d2_7/8e2^f2d2e4eee4e2f2d4  | 
w:   |   | 
_7/8e2^f4g2g2f2f2e2  | d4c2d4c2d2z2  | \
w:   |   | 
d2c2d4_7/8e^fe4ee  | 
w:   | 
^f_7/8eded2c2B2c2d2B4BBB4B2A2B4  | \
w:   | 
cdc4ccc2z2c2B2  | 
w:   | 
c4d_7/8ed4ddd2z2  | d2c2d4_7/8e^fe4d2  | \
w:   |   | 
_7/8e2d2e2^f2g2f2e2d4c2d2z2d2c2d4  | 
w:   | 
_7/8e^fd2e4eefeded2  | c2B2c2d2B4^A2G4A4B4d2c4  | 
w:   |   | 
B2^A3Bc2d2d2c2B4z2B4d2_7/8e2z2e2  | \
w:   | 
d2_7/8e4d2e4d2e2  | d2_7/8e2^f2g2f2e2d4  | 
w:   |   | 
c2d2z2d2c2d2_7/8e2^f2  | d2_7/8e4eee4e2^f2  | \
w:   |   | 
d4_7/8e2^f4g2g2f2  | 
w:   | 
^f2_7/8e2d4c2d4c2  | d2z2d2c2d4_7/8e^fe4eefeded2c2B2c2  | 
w:   |   | 
d2B4BBB4B2A2  | B4cdc4ccc2z2  | c2B2c4d_7/8ed4dd  | 
w:   |   |   | 
d2z2d2c2d4_7/8e^fe4d2e2d2e2f2g2f2  | \
w:   | 
_7/8e2d4c2d2z2d2c2  | 
w:   | 
d4_7/8e^fd2e4eefe  | d_7/8ed2c2B2c2d2B4  | \
w:   |   | 
^A2G4A4B4d2  | 
w:   | 
c4B2^A3Bc2d2d2  | c2B4z2B4^A2B2  | ^A2B2A2B4c2d4  | \
w:   |   |   | 
ddd2_7/8e2c2d2e4z2  | 
w:   | 
_7/8e4d2e2d2e2d2e4^f2g4ggg2f2e2  | \
w:   | 
^f2g4z2g4ggg2  | 
w:   | 
^f2_7/8e2f2g4z2g4  | ^f2g2f2g2f2g4^a2  | \
w:   |   | 
b4bbb2^a2g2a2b4z2b4a2b2a2b2  | 
w:   | 
^a2b4c'2d'4d'd'd'2  | c'2b2c'2d'4z2d'2c'2  | \
w:   |   | 
d'4b2c'2b2c'4a2  | b2a2b4g2a2g2a4^f2g2f2g4_7/8e2f2  | 
w:   |   | 
_7/8e2^f4d2e2d2e4  | c2d2c2d4c2B4  | \
w:   |   | 
_7/8ee^feded2c2B2c2d2  | 
w:   | 
B4^A2G4A4B4d2c4B2A3Bc2  | d2B4z2B4_7/8eee2  | \
w:   |   | 
d2d2c2B4c2d4  | 
w:   | 
_7/8e^fe2d2d2c2B4cd  | c4ccc4c2B2d4c2B4BBB2z2B2  | 
w:   |   | 
A2B4cdc4ccc2  | z2c2B2d4c2B4  | BBB2z2B2A2B4c2  | 
w:   |   |   | 
d4_7/8eee2d2d2c2B4cdB4^A2G4A4B4d2c4B2A3Bc2d2d2c2B4z2  | 
w:   | 
B4d2_7/8e2z2e2d2e4d2e4d2e2d2e2  | \
w:   | 
^f2g2f2_7/8e2d4c2d2  | z2d2c2d2_7/8e2^f2d2e4eee4e2f2d4  | 
w:   |   | 
_7/8e2^f4g2g2f2f2e2  | d4c2d4c2d2z2  | \
w:   |   | 
d2c2d4_7/8e^fe4ee  | 
w:   | 
^f_7/8eded2c2B2c2d2B4BBB4B2A2B4  | \
w:   | 
cdc4ccc2z2c2B2  | 
w:   | 
c4d_7/8ed4ddd2z2  | d2c2d4_7/8e^fe4d2  | \
w:   |   | 
_7/8e2d2e2^f2g2f2e2d4c2d2z2d2c2d4  | 
w:   | 
_7/8e^fd2e4eefeded2  | c2B2c2d2B4^A2G4A4B4d2c4  | 
w:   |   | 
B2^A3Bc2d2d2c2B4z2B4A2B2A2B2  | ^A2B4c2d4ddd2  | 
w:   |   | 
_7/8e2c2d2e4z2e4  | d2_7/8e2d2e2d2e4^f2  | \
w:   |   | 
g4ggg2^f2_7/8e2f2g4z2g4ggg2f2e2  | 
w:   | 
^f2g4z2g4f2g2  | ^f2g2f2g4^a2b4  | bbb2^a2g2a2b4z2  | \
w:   |   |   | 
b4^a2b2a2b2a2b4c'2d'4d'd'd'2c'2b2  | 
w:   | 
c'2d'4z2d'2c'2d'4  | b2c'2b2c'4a2b2a2  | \
w:   |   | 
b4g2a2g2a4^f2  | g2^f2g4_7/8e2f2e2f4d2e2d2e4c2d2  | 
w:   |   | 
c2d4c2B4_7/8ee^fe  | d_7/8ed2c2B2c2d2B4  | \
w:   |   | 
^A2G4A4B4d2  | 
w:   | 
c4B2^A3Bc2d2B4z2B3_7/8e2d3e2c3d2e3z2d3e2^f3  | \
w:   | 
g2^f3_7/8e2f2d3c2de2d3c2d3c2B3z2  | 
w:   | 
B3_7/8e2d3e2c3d2e3z2d3e2^f3g2f3e2f2d3c2de2d3  | \
w:   | 
c2d3c2B3z2B3c2cBc3d2Bc2d3z2  | 
w:   | 
d2_7/8e^f2d3c2d3c2B3z2B2cB2^A3A2B2  | \
w:   | 
cB2^A3A2B3c2B3  | 
w:   | 
^A2G3B2A3G2^F3F2F2F3G3F2G2G3  | ^A3G2A2A3B3A2B2B3B3c2d3_7/8e2d3ccc3d2B4A2G4A4B4d2c4  | 
w:   |   | 
B2^A3Bc2d2B4z2  | |


